Numix-Light/16/status/indicator-keyboard-Hy-5.svg

<?xml version="1.0" encoding="UTF-8" standalone="no"?>
<svg
   xmlns:dc="http://purl.org/dc/elements/1.1/"
   xmlns:cc="http://creativecommons.org/ns#"
   xmlns:rdf="http://www.w3.org/1999/02/22-rdf-syntax-ns#"
   xmlns:svg="http://www.w3.org/2000/svg"
   xmlns="http://www.w3.org/2000/svg"
   xmlns:sodipodi="http://sodipodi.sourceforge.net/DTD/sodipodi-0.dtd"
   xmlns:inkscape="http://www.inkscape.org/namespaces/inkscape"
   viewBox="0 0 16 16"
   id="svg2"
   version="1.1"
   inkscape:version="0.91 r13725"
   sodipodi:docname="indicator-keyboard-Hy-5.svg">
  <metadata
     id="metadata14">
    <rdf:RDF>
      <cc:Work
         rdf:about="">
        <dc:format>image/svg+xml</dc:format>
        <dc:type
           rdf:resource="http://purl.org/dc/dcmitype/StillImage" />
      </cc:Work>
    </rdf:RDF>
  </metadata>
  <defs
     id="defs12" />
  <sodipodi:namedview
     pagecolor="#ffffff"
     bordercolor="#666666"
     borderopacity="1"
     objecttolerance="10"
     gridtolerance="10"
     guidetolerance="10"
     inkscape:pageopacity="0"
     inkscape:pageshadow="2"
     inkscape:window-width="640"
     inkscape:window-height="480"
     id="namedview10"
     showgrid="false"
     inkscape:zoom="14.75"
     inkscape:cx="8"
     inkscape:cy="8"
     inkscape:window-x="65"
     inkscape:window-y="24"
     inkscape:window-maximized="0"
     inkscape:current-layer="svg2" />
  <path
     style="fill:#353535;fill-opacity:1"
     d="M 1.5996094 0 C 0.71320937 2.9605947e-16 0 0.71320937 0 1.5996094 L 0 14.400391 C 2.9605947e-16 15.286791 0.71320937 16 1.5996094 16 L 14.400391 16 C 15.286791 16 16 15.286791 16 14.400391 L 16 1.5996094 C 16 0.71320937 15.286791 0 14.400391 0 L 1.5996094 0 z M 1.7460938 4.859375 L 2.3574219 4.859375 L 2.3574219 7.5683594 L 5.7402344 7.5683594 L 5.7402344 4.859375 L 6.3535156 4.859375 L 6.3535156 11.095703 L 5.7402344 11.095703 L 5.7402344 8.0996094 L 2.3574219 8.0996094 L 2.3574219 11.095703 L 1.7460938 11.095703 L 1.7460938 4.859375 z M 7.3378906 6.4433594 L 7.9589844 6.4433594 C 8.0249844 6.7313594 8.1089375 7.0429063 8.2109375 7.3789062 C 8.3129375 7.7089062 8.4267344 8.0502969 8.5527344 8.4042969 C 8.6847344 8.7582969 8.828375 9.1221406 8.984375 9.4941406 C 9.140375 9.8661408 9.3082813 10.231797 9.4882812 10.591797 C 9.6202812 10.219797 9.7378438 9.8690627 9.8398438 9.5390625 C 9.9418438 9.2090625 10.035141 8.8825938 10.119141 8.5585938 C 10.209141 8.2285938 10.293094 7.8927812 10.371094 7.5507812 C 10.455094 7.2087813 10.540859 6.8393594 10.630859 6.4433594 L 11.216797 6.4433594 C 11.024797 7.3133594 10.806547 8.1584688 10.560547 8.9804688 C 10.314547 9.8024689 10.047765 10.556234 9.7597656 11.240234 C 9.6457656 11.510234 9.5282031 11.741594 9.4082031 11.933594 C 9.2882031 12.131594 9.1519531 12.293922 9.0019531 12.419922 C 8.8579531 12.545922 8.6882344 12.637266 8.4902344 12.697266 C 8.2982344 12.757266 8.0706406 12.787109 7.8066406 12.787109 C 7.6566406 12.787109 7.5185781 12.770375 7.3925781 12.734375 C 7.2725781 12.698375 7.1960156 12.670344 7.1660156 12.652344 L 7.2832031 12.167969 C 7.3072031 12.185969 7.3744219 12.208281 7.4824219 12.238281 C 7.5964219 12.274281 7.7120312 12.292969 7.8320312 12.292969 C 8.0000313 12.292969 8.1512031 12.274281 8.2832031 12.238281 C 8.4212031 12.202281 8.5443437 12.140781 8.6523438 12.050781 C 8.7603438 11.966781 8.8554531 11.854797 8.9394531 11.716797 C 9.0294531 11.578797 9.1171719 11.405313 9.2011719 11.195312 C 9.0031719 10.829313 8.811 10.448734 8.625 10.052734 C 8.445 9.6567342 8.2733281 9.2574687 8.1113281 8.8554688 C 7.9553281 8.4474688 7.8116875 8.042625 7.6796875 7.640625 C 7.5476875 7.232625 7.4338906 6.8333594 7.3378906 6.4433594 z M 12.289062 8.8417969 L 14.115234 8.8417969 L 14.115234 9.1757812 L 12.623047 9.1757812 C 12.619114 9.2498812 12.613235 9.3458906 12.605469 9.4628906 C 12.597669 9.5798906 12.589831 9.6994188 12.582031 9.8242188 C 12.574231 9.9451188 12.564434 10.062681 12.552734 10.175781 C 12.541034 10.288881 12.531238 10.379012 12.523438 10.445312 C 12.823738 10.453112 13.082381 10.490341 13.300781 10.556641 C 13.519181 10.622941 13.699444 10.711119 13.839844 10.824219 C 13.980244 10.937319 14.084091 11.074475 14.150391 11.234375 C 14.220591 11.394275 14.253906 11.572578 14.253906 11.767578 C 14.253906 11.939178 14.226469 12.097894 14.167969 12.246094 C 14.113369 12.394294 14.027156 12.523613 13.910156 12.632812 C 13.793156 12.742012 13.644244 12.828225 13.464844 12.890625 C 13.285444 12.953025 13.073825 12.984375 12.828125 12.984375 C 12.703325 12.984375 12.585762 12.974578 12.476562 12.955078 C 12.371262 12.939478 12.275253 12.919884 12.189453 12.896484 C 12.107553 12.873084 12.037016 12.849572 11.978516 12.826172 C 11.920016 12.802772 11.876909 12.783178 11.849609 12.767578 L 11.949219 12.427734 C 11.972619 12.443334 12.011806 12.462928 12.066406 12.486328 C 12.124906 12.509728 12.191525 12.533241 12.265625 12.556641 C 12.343625 12.576141 12.429838 12.593775 12.523438 12.609375 C 12.620937 12.624975 12.722825 12.632812 12.828125 12.632812 C 13.023125 12.632812 13.1838 12.611259 13.3125 12.568359 C 13.4451 12.521559 13.550906 12.458859 13.628906 12.380859 C 13.706906 12.302859 13.761769 12.212728 13.792969 12.111328 C 13.828069 12.006028 13.845703 11.894337 13.845703 11.773438 C 13.845703 11.617437 13.820231 11.476362 13.769531 11.351562 C 13.718831 11.226762 13.6287 11.120956 13.5 11.035156 C 13.3713 10.949356 13.198869 10.884697 12.980469 10.841797 C 12.762069 10.794997 12.483837 10.771484 12.148438 10.771484 C 12.171837 10.572584 12.191431 10.392316 12.207031 10.228516 C 12.222631 10.060816 12.236347 9.9001469 12.248047 9.7480469 C 12.259747 9.5920469 12.267584 9.4431281 12.271484 9.2988281 C 12.279284 9.1506281 12.285163 8.9977969 12.289062 8.8417969 z "
     id="path4" />
</svg>

<svg xmlns="http://www.w3.org/2000/svg" viewBox="0 0 16 16">
 <path d="m 1.6 0 c -0.886 0 -1.6 0.713 -1.6 1.6 l 0 12.801 c 0 0.886 0.713 1.6 1.6 1.6 l 12.801 0 c 0.886 0 1.6 -0.713 1.6 -1.6 l 0 -12.801 c 0 -0.886 -0.713 -1.6 -1.6 -1.6 l -12.801 0 z m 0.146 4.859 l 0.611 0 l 0 2.709 l 3.383 0 l 0 -2.709 l 0.613 0 l 0 6.236 l -0.613 0 l 0 -2.996 l -3.383 0 l 0 2.996 l -0.611 0 l 0 -6.236 z m 5.592 1.584 l 0.621 0 c 0.066 0.288 0.15 0.6 0.252 0.936 c 0.102 0.33 0.216 0.671 0.342 1.025 c 0.132 0.354 0.276 0.718 0.432 1.09 c 0.156 0.372 0.324 0.738 0.504 1.098 c 0.132 -0.372 0.25 -0.723 0.352 -1.053 c 0.102 -0.33 0.195 -0.656 0.279 -0.98 c 0.09 -0.33 0.174 -0.666 0.252 -1.01 c 0.084 -0.342 0.17 -0.711 0.26 -1.107 l 0.586 0 c -0.192 0.87 -0.41 1.715 -0.656 2.537 c -0.246 0.822 -0.513 1.576 -0.801 2.26 c -0.114 0.27 -0.232 0.501 -0.352 0.693 c -0.12 0.198 -0.256 0.36 -0.406 0.486 c -0.144 0.126 -0.314 0.217 -0.512 0.277 c -0.192 0.06 -0.42 0.09 -0.684 0.09 c -0.15 0 -0.288 -0.017 -0.414 -0.053 c -0.12 -0.036 -0.197 -0.064 -0.227 -0.082 l 0.117 -0.484 c 0.024 0.018 0.091 0.04 0.199 0.07 c 0.114 0.036 0.23 0.055 0.35 0.055 c 0.168 0 0.319 -0.019 0.451 -0.055 c 0.138 -0.036 0.261 -0.098 0.369 -0.188 c 0.108 -0.084 0.203 -0.196 0.287 -0.334 c 0.09 -0.138 0.178 -0.311 0.262 -0.521 c -0.198 -0.366 -0.39 -0.747 -0.576 -1.143 c -0.18 -0.396 -0.352 -0.795 -0.514 -1.197 c -0.156 -0.408 -0.3 -0.813 -0.432 -1.215 c -0.132 -0.408 -0.246 -0.807 -0.342 -1.197 z m 4.951 2.398 l 1.826 0 l 0 0.334 l -1.492 0 c -0.004 0.074 -0.01 0.17 -0.018 0.287 c -0.008 0.117 -0.016 0.237 -0.023 0.361 c -0.008 0.121 -0.018 0.238 -0.029 0.352 c -0.012 0.113 -0.021 0.203 -0.029 0.27 c 0.3 0.008 0.559 0.045 0.777 0.111 c 0.218 0.066 0.399 0.154 0.539 0.268 c 0.14 0.113 0.244 0.25 0.311 0.41 c 0.07 0.16 0.104 0.338 0.104 0.533 c 0 0.172 -0.027 0.33 -0.086 0.479 c -0.055 0.148 -0.141 0.278 -0.258 0.387 c -0.117 0.109 -0.266 0.195 -0.445 0.258 c -0.179 0.062 -0.391 0.094 -0.637 0.094 c -0.125 0 -0.242 -0.01 -0.352 -0.029 c -0.105 -0.016 -0.201 -0.035 -0.287 -0.059 c -0.082 -0.023 -0.152 -0.047 -0.211 -0.07 c -0.059 -0.023 -0.102 -0.043 -0.129 -0.059 l 0.1 -0.34 c 0.023 0.016 0.063 0.035 0.117 0.059 c 0.058 0.023 0.125 0.047 0.199 0.07 c 0.078 0.019 0.164 0.037 0.258 0.053 c 0.097 0.016 0.199 0.023 0.305 0.023 c 0.195 0 0.356 -0.022 0.484 -0.064 c 0.133 -0.047 0.238 -0.109 0.316 -0.188 c 0.078 -0.078 0.133 -0.168 0.164 -0.27 c 0.035 -0.105 0.053 -0.217 0.053 -0.338 c 0 -0.156 -0.025 -0.297 -0.076 -0.422 c -0.051 -0.125 -0.141 -0.231 -0.27 -0.316 c -0.129 -0.086 -0.301 -0.15 -0.52 -0.193 c -0.218 -0.047 -0.497 -0.07 -0.832 -0.07 c 0.023 -0.199 0.043 -0.379 0.059 -0.543 c 0.016 -0.168 0.029 -0.328 0.041 -0.48 c 0.012 -0.156 0.02 -0.305 0.023 -0.449 c 0.008 -0.148 0.014 -0.301 0.018 -0.457 z" style="fill:#353535;fill-opacity:1"/>
</svg>
